svg/device/solar_panel_fill.svg

<svg xmlns="http://www.w3.org/2000/svg" width="24" height="24" viewBox="0 0 24 24"><g fill="none"><path d="M24,0 L24,24 L0,24 L0,0 L24,0 Z M12.5935,23.2578 L12.5819,23.2595 L12.5109,23.295 L12.4919,23.2987 L12.4767,23.295 L12.4057,23.2595 C12.3958,23.2564 12.387,23.259 12.3821,23.2649 L12.378,23.2758 L12.3609,23.7031 L12.3659,23.7235 L12.3769,23.7357 L12.4805,23.8097 L12.4953,23.8136 L12.5071,23.8097 L12.6107,23.7357 L12.6233,23.7197 L12.6267,23.7031 L12.6096,23.2758 C12.6076,23.2657 12.601,23.2593 12.5935,23.2578 Z M12.8584,23.1453 L12.8445,23.1473 L12.6598,23.2397 L12.6499,23.2499 L12.6472,23.2611 L12.6651,23.6906 L12.6699,23.7034 L12.6784,23.7105 L12.8793,23.8032 C12.8914,23.8069 12.9022,23.803 12.9078,23.7952 L12.9118,23.7812 L12.8777,23.1665 C12.8753,23.1546 12.8674,23.147 12.8584,23.1453 Z M12.143,23.1473 C12.1332,23.1424 12.1222,23.1453 12.1156,23.1526 L12.1099,23.1665 L12.0758,23.7812 C12.0751,23.7927 12.0828,23.8019 12.0926,23.8046 L12.1083,23.8032 L12.3092,23.7105 L12.3186,23.7024 L12.3225,23.6906 L12.3404,23.2611 L12.3372,23.2485 L12.3278,23.2397 L12.143,23.1473 Z"/><path fill="#09244B" d="M10.105,4 L13.895,4 L14.395,9 L9.60497,9 L10.105,4 Z M9.40497,11 L14.595,11 L15.095,16 L13,16 L13,18 L15,18 C15.5523,18 16,18.4477 16,19 C16,19.5523 15.5523,20 15,20 L8.99998,20 C8.4477,20 7.99998,19.5523 7.99998,19 C7.99998,18.4477 8.4477,18 8.99998,18 L11,18 L11,16 L8.90497,16 L9.40497,11 Z M16.605,11 L17.105,16 L20.3901,16 C21.3367,16 22.0466,15.134 21.861,14.2058 L21.2198,11 L16.605,11 Z M15.905,4 L16.405,9 L20.8198,9 L20.1413,5.60777 C19.9544,4.67292 19.1335,4 18.1802,4 L15.905,4 Z M8.095,4 L5.81979,4 C4.86642,4 4.04559,4.67292 3.85862,5.60777 L3.18018,9 L7.595,9 L8.095,4 Z M7.395,11 L2.78018,11 L2.13901,14.2058 C1.95338,15.134 2.66331,16 3.60988,16 L6.895,16 L7.395,11 Z"/></g></svg>

<svg xmlns="http://www.w3.org/2000/svg" width="24" height="24"><g fill="none"><path d="M24 0v24H0V0zM12.594 23.258l-.012.002-.071.035-.02.004-.014-.004-.071-.036c-.01-.003-.019 0-.024.006l-.004.01-.017.428.005.02.01.013.104.074.015.004.012-.004.104-.074.012-.016.004-.017-.017-.427c-.002-.01-.009-.017-.016-.018m.264-.113-.014.002-.184.093-.01.01-.003.011.018.43.005.012.008.008.201.092c.012.004.023 0 .029-.008l.004-.014-.034-.614c-.003-.012-.01-.02-.02-.022m-.715.002a.023.023 0 0 0-.027.006l-.006.014-.034.614c0 .012.007.02.017.024l.015-.002.201-.093.01-.008.003-.011.018-.43-.003-.012-.01-.01z"/><path fill="#09244B" d="M10.105 4h3.79l.5 5h-4.79zm-.7 7h5.19l.5 5H13v2h2a1 1 0 1 1 0 2H9a1 1 0 1 1 0-2h2v-2H8.905zm7.2 0 .5 5h3.285a1.5 1.5 0 0 0 1.471-1.794L21.22 11zm-.7-7 .5 5h4.415l-.679-3.392A2 2 0 0 0 18.181 4zm-7.81 0H5.82a2 2 0 0 0-1.961 1.608L3.18 9h4.415zm-.7 7H2.78l-.641 3.206A1.5 1.5 0 0 0 3.609 16h3.286z"/></g></svg>
